X: 343
T: Momino Horo
O: Bulgaria
M: 2/4
L: 1/16
Q: 1/4=108
K: Gm
%%MIDI gchord Gf
|:"Gm"CB,A,2 B,A,G,2 | G,8     |D8           | F2E2 D2C2|\
  D2B,2-B,4          | G,4 C4  |B,2A,2 G,4   | G,8      :|
|:"Bb"D8             | D8      |"Cm"F2E2 D2C2|"Dm" D4 D4|\
  "F"F2E2 D2C2       |"Gm" B,8 | G,8-        |G,8       |
  "Cm"C8             | C8      |"Bb"B,4 B,4  |"Eb"G,4 C4|B,8|\
  "Adim" C2B,2 A,2G,2|"Dm"G,8  | C8          |B,8       |\
  C2B,2 A,2G,2       |"Gm"G,8- |G,8          :|



